src/assets/icons/logo.svg

<svg width="212" height="82" viewBox="0 0 212 82" fill="none" xmlns="http://www.w3.org/2000/svg">
<g id="Frame 1321314401" clip-path="url(#clip0_394_6537)">
<g id="Vector">
<path d="M0 -65H212V147H0V-65Z" fill="#FEFEFD"/>
<path d="M32.0785 40.4771C33.4849 40.4771 34.7063 40.3013 35.7426 39.9497C36.7974 39.5981 37.6579 39.117 38.324 38.5063C39.0087 37.8771 39.5176 37.1369 39.8507 36.2857C40.1838 35.4344 40.3504 34.4999 40.3504 33.4821C40.3504 31.4465 39.6749 29.8829 38.324 28.791C36.9917 27.6992 34.9468 27.1533 32.1896 27.1533H27.4152V40.4771H32.0785ZM51.287 61.5176H44.5418C43.2649 61.5176 42.3397 61.0179 41.766 60.0186L33.3276 47.1667C33.013 46.6856 32.6614 46.3433 32.2728 46.1397C31.9027 45.9361 31.3476 45.8344 30.6074 45.8344H27.4152V61.5176H19.9483V21.3797H32.1896C34.9098 21.3797 37.2415 21.6665 39.1845 22.2402C41.1461 22.7953 42.7468 23.5818 43.9867 24.5996C45.245 25.6174 46.1703 26.8387 46.7624 28.2636C47.3546 29.67 47.6507 31.2245 47.6507 32.927C47.6507 34.2778 47.4471 35.5547 47.04 36.7575C46.6514 37.9604 46.0777 39.0522 45.319 40.033C44.5788 41.0137 43.6536 41.8742 42.5432 42.6144C41.4514 43.3547 40.2023 43.9376 38.7959 44.3632C39.2771 44.6408 39.7212 44.9739 40.1283 45.3625C40.5354 45.7326 40.9055 46.1767 41.2386 46.6949L51.287 61.5176Z" fill="#4CAF50"/>
<path d="M71.0436 44.0023C71.0436 43.1141 70.9141 42.2814 70.655 41.5041C70.4144 40.7084 70.0443 40.0145 69.5447 39.4223C69.0451 38.8301 68.4066 38.3675 67.6294 38.0344C66.8707 37.6828 65.9824 37.507 64.9647 37.507C62.9846 37.507 61.4209 38.0714 60.2736 39.2002C59.1448 40.3291 58.423 41.9298 58.1085 44.0023H71.0436ZM57.9697 48.1383C58.0807 49.6002 58.3398 50.8678 58.7469 51.9411C59.154 52.9959 59.6907 53.8749 60.3568 54.5781C61.023 55.2628 61.8095 55.7809 62.7163 56.1325C63.6415 56.4656 64.6593 56.6322 65.7696 56.6322C66.8799 56.6322 67.833 56.5026 68.6287 56.2436C69.4429 55.9845 70.1461 55.6977 70.7383 55.3831C71.349 55.0685 71.8764 54.7816 72.3205 54.5226C72.7831 54.2635 73.2272 54.134 73.6529 54.134C74.2265 54.134 74.6521 54.3468 74.9297 54.7724L76.9005 57.2706C76.1418 58.1589 75.2906 58.9083 74.3468 59.519C73.403 60.1112 72.413 60.5923 71.3767 60.9624C70.3589 61.314 69.3134 61.5638 68.2401 61.7119C67.1853 61.8599 66.1582 61.9339 65.159 61.9339C63.1789 61.9339 61.3376 61.6101 59.6351 60.9624C57.9327 60.2962 56.4522 59.3247 55.1939 58.0478C53.9355 56.7525 52.9455 55.161 52.2238 53.2735C51.5021 51.3674 51.1412 49.1653 51.1412 46.6671C51.1412 44.724 51.4558 42.9013 52.085 41.1988C52.7142 39.4778 53.6117 37.9881 54.7775 36.7298C55.9618 35.4529 57.396 34.4444 59.08 33.7042C60.7825 32.964 62.6978 32.5939 64.8259 32.5939C66.6209 32.5939 68.2771 32.8807 69.7945 33.4544C71.312 34.028 72.6166 34.87 73.7084 35.9803C74.8002 37.0721 75.6514 38.423 76.2621 40.033C76.8913 41.6244 77.2059 43.4472 77.2059 45.5013C77.2059 46.5376 77.0948 47.2408 76.8728 47.6109C76.6507 47.9625 76.2251 48.1383 75.5959 48.1383H57.9697Z" fill="#4CAF50"/>
<path d="M102.966 39.0614C102.763 39.3205 102.559 39.5241 102.356 39.6721C102.171 39.8202 101.893 39.8942 101.523 39.8942C101.171 39.8942 100.829 39.7924 100.496 39.5889C100.163 39.3668 99.7649 39.1262 99.3022 38.8671C98.8396 38.5896 98.2844 38.349 97.6368 38.1454C97.0076 37.9234 96.2211 37.8123 95.2774 37.8123C94.0745 37.8123 93.0197 38.0344 92.1129 38.4785C91.2062 38.9042 90.4475 39.5241 89.8368 40.3383C89.2446 41.1525 88.8005 42.1426 88.5044 43.3084C88.2084 44.4557 88.0603 45.7603 88.0603 47.2223C88.0603 48.7397 88.2176 50.0906 88.5322 51.2749C88.8653 52.4592 89.3372 53.4585 89.9478 54.2728C90.5585 55.0685 91.2987 55.6792 92.1685 56.1048C93.0382 56.5119 94.019 56.7154 95.1108 56.7154C96.2026 56.7154 97.0816 56.5859 97.7478 56.3268C98.4325 56.0493 99.0061 55.7532 99.4688 55.4386C99.9314 55.1055 100.329 54.8094 100.662 54.5503C101.014 54.2728 101.403 54.134 101.828 54.134C102.383 54.134 102.8 54.3468 103.077 54.7724L105.048 57.2706C104.289 58.1589 103.466 58.9083 102.578 59.519C101.689 60.1112 100.764 60.5923 99.8019 60.9624C98.8581 61.314 97.8773 61.5638 96.8595 61.7119C95.8603 61.8599 94.861 61.9339 93.8617 61.9339C92.1037 61.9339 90.4475 61.6101 88.893 60.9624C87.3386 60.2962 85.9785 59.3339 84.8126 58.0756C83.6468 56.8172 82.7215 55.2813 82.0368 53.4678C81.3707 51.6358 81.0376 49.5539 81.0376 47.2223C81.0376 45.1312 81.3336 43.1974 81.9258 41.4209C82.5365 39.6259 83.4247 38.0807 84.5906 36.7853C85.7564 35.4714 87.1998 34.4444 88.9208 33.7042C90.6418 32.964 92.6218 32.5939 94.861 32.5939C96.9891 32.5939 98.8489 32.9362 100.44 33.6209C102.05 34.3056 103.494 35.2864 104.771 36.5632L102.966 39.0614Z" fill="#4CAF50"/>
<path d="M124.391 49.3596C122.411 49.4521 120.745 49.6279 119.395 49.887C118.044 50.1276 116.961 50.4422 116.147 50.8308C115.333 51.2194 114.75 51.6728 114.398 52.1909C114.047 52.7091 113.871 53.2735 113.871 53.8842C113.871 55.087 114.222 55.9475 114.926 56.4656C115.647 56.9838 116.582 57.2428 117.729 57.2428C119.136 57.2428 120.348 56.993 121.365 56.4934C122.402 55.9752 123.41 55.198 124.391 54.1617V49.3596ZM108.68 37.0074C111.955 34.0095 115.897 32.5106 120.505 32.5106C122.17 32.5106 123.66 32.7882 124.974 33.3433C126.288 33.88 127.398 34.6387 128.305 35.6195C129.212 36.5817 129.896 37.7383 130.359 39.0892C130.84 40.4401 131.081 41.9205 131.081 43.5305V61.5176H127.972C127.324 61.5176 126.824 61.425 126.473 61.24C126.121 61.0364 125.844 60.6386 125.64 60.0464L125.029 57.9923C124.308 58.64 123.605 59.2137 122.92 59.7133C122.235 60.1944 121.523 60.6015 120.782 60.9346C120.042 61.2677 119.247 61.5175 118.395 61.6841C117.563 61.8691 116.637 61.9617 115.62 61.9617C114.417 61.9617 113.306 61.8044 112.289 61.4898C111.271 61.1567 110.392 60.6663 109.652 60.0186C108.911 59.3709 108.338 58.566 107.931 57.6037C107.523 56.6414 107.32 55.5219 107.32 54.245C107.32 53.5233 107.44 52.8108 107.681 52.1076C107.921 51.3859 108.31 50.7012 108.847 50.0536C109.402 49.4059 110.114 48.7952 110.984 48.2215C111.854 47.6479 112.918 47.1482 114.176 46.7226C115.453 46.297 116.933 45.9547 118.617 45.6956C120.301 45.418 122.226 45.2514 124.391 45.1959V43.5305C124.391 41.6244 123.984 40.218 123.17 39.3113C122.355 38.386 121.18 37.9234 119.644 37.9234C118.534 37.9234 117.609 38.0529 116.869 38.312C116.147 38.5711 115.508 38.8671 114.953 39.2002C114.398 39.5148 113.889 39.8017 113.427 40.0607C112.983 40.3198 112.483 40.4493 111.928 40.4493C111.447 40.4493 111.039 40.3291 110.706 40.0885C110.373 39.8294 110.105 39.5333 109.901 39.2002L108.68 37.0074Z" fill="#4CAF50"/>
<path d="M144.477 20.2694V61.5176H137.621V20.2694H144.477Z" fill="#4CAF50"/>
<path d="M158.414 33.038V61.5176H151.53V33.038H158.414Z" fill="#4CAF50"/>
<path d="M178.006 32.5939C180.116 32.5939 182.031 32.9362 183.752 33.6209C185.492 34.3056 186.972 35.2771 188.193 36.5355C189.433 37.7938 190.386 39.3298 191.052 41.1433C191.719 42.9568 192.052 44.9831 192.052 47.2223C192.052 49.4799 191.719 51.5155 191.052 53.329C190.386 55.1425 189.433 56.6877 188.193 57.9646C186.972 59.2414 185.492 60.2222 183.752 60.9069C182.031 61.5916 180.116 61.9339 178.006 61.9339C175.878 61.9339 173.944 61.5916 172.205 60.9069C170.465 60.2222 168.976 59.2414 167.736 57.9646C166.514 56.6877 165.561 55.1425 164.877 53.329C164.211 51.5155 163.877 49.4799 163.877 47.2223C163.877 44.9831 164.211 42.9568 164.877 41.1433C165.561 39.3298 166.514 37.7938 167.736 36.5355C168.976 35.2771 170.465 34.3056 172.205 33.6209C173.944 32.9362 175.878 32.5939 178.006 32.5939ZM178.006 56.6599C180.375 56.6599 182.124 55.8642 183.252 54.2728C184.4 52.6813 184.973 50.3496 184.973 47.2778C184.973 44.2059 184.4 41.865 183.252 40.255C182.124 38.6451 180.375 37.8401 178.006 37.8401C175.6 37.8401 173.815 38.6543 172.649 40.2828C171.502 41.8927 170.928 44.2244 170.928 47.2778C170.928 50.3311 171.502 52.6628 172.649 54.2728C173.815 55.8642 175.6 56.6599 178.006 56.6599Z" fill="#4CAF50"/>
<path d="M154.893 29.0599L158.308 31.1008C158.933 31.4748 159.698 30.9219 159.534 30.2227L158.628 26.3848L161.648 23.7992C162.199 23.3276 161.903 22.4332 161.179 22.3763L157.205 22.0429L155.65 18.4165C155.37 17.7579 154.416 17.7579 154.136 18.4165L152.581 22.0348L148.607 22.3681C147.883 22.425 147.587 23.3195 148.138 23.7911L151.158 26.3767L150.252 30.2145C150.088 30.9138 150.853 31.4667 151.478 31.0927L154.893 29.0599Z" fill="#F0C62F"/>
</g>
</g>
<defs>
<clipPath id="clip0_394_6537">
<rect width="212" height="82" fill="white"/>
</clipPath>
</defs>
</svg>

<svg viewBox="0 0 212 82" fill="none" xmlns="http://www.w3.org/2000/svg"><g clip-path="url(#prefix__prefix__clip0_394_6537)"><path d="M0-65h212v212H0V-65z" fill="#FEFEFD"/><path d="M32.078 40.477c1.407 0 2.628-.176 3.665-.527 1.054-.352 1.915-.833 2.581-1.444a5.904 5.904 0 001.527-2.22c.333-.852.5-1.786.5-2.804 0-2.035-.676-3.6-2.027-4.691-1.332-1.092-3.377-1.638-6.134-1.638h-4.775v13.324h4.663zm19.209 21.04h-6.745c-1.277 0-2.202-.5-2.776-1.498l-8.438-12.852c-.315-.481-.667-.824-1.055-1.027-.37-.204-.925-.306-1.666-.306h-3.192v15.684h-7.467V21.38H32.19c2.72 0 5.052.287 6.995.86 1.961.555 3.562 1.342 4.802 2.36 1.258 1.017 2.183 2.239 2.775 3.664.593 1.406.889 2.96.889 4.663 0 1.35-.204 2.628-.611 3.83a10.67 10.67 0 01-1.721 3.276c-.74.98-1.665 1.841-2.776 2.581-1.092.74-2.34 1.324-3.747 1.75.481.277.925.61 1.332.998.407.37.778.815 1.11 1.333l10.049 14.823zm19.757-17.515c0-.888-.13-1.72-.389-2.498a5.78 5.78 0 00-1.11-2.082c-.5-.592-1.138-1.054-1.916-1.388-.758-.351-1.647-.527-2.664-.527-1.98 0-3.544.564-4.691 1.693-1.13 1.13-1.851 2.73-2.166 4.802h12.936zM57.97 48.138c.11 1.462.37 2.73.777 3.803.407 1.055.944 1.934 1.61 2.637a6.56 6.56 0 002.36 1.554c.925.334 1.942.5 3.053.5 1.11 0 2.063-.13 2.859-.388.814-.26 1.517-.546 2.11-.86.61-.316 1.137-.602 1.581-.861.463-.26.907-.389 1.333-.389.573 0 1 .213 1.277.638l1.97 2.499a11.73 11.73 0 01-2.553 2.248 15.179 15.179 0 01-2.97 1.443 16.483 16.483 0 01-3.137.75 22.168 22.168 0 01-3.081.222c-1.98 0-3.821-.324-5.524-.972a12.613 12.613 0 01-4.441-2.914c-1.259-1.296-2.248-2.887-2.97-4.775-.722-1.906-1.083-4.108-1.083-6.606 0-1.943.315-3.766.944-5.468.63-1.721 1.527-3.21 2.693-4.47 1.184-1.276 2.618-2.285 4.302-3.025 1.703-.74 3.618-1.11 5.746-1.11 1.795 0 3.451.287 4.969.86 1.517.574 2.822 1.416 3.913 2.526 1.092 1.092 1.943 2.443 2.554 4.053.63 1.591.944 3.414.944 5.468 0 1.037-.111 1.74-.333 2.11-.222.352-.648.527-1.277.527H57.97zm44.996-9.077a3.14 3.14 0 01-.61.611c-.185.148-.463.222-.833.222-.352 0-.694-.102-1.027-.305a18.22 18.22 0 00-1.194-.722 7.769 7.769 0 00-1.665-.722c-.63-.222-1.416-.333-2.36-.333-1.203 0-2.257.222-3.164.666a5.991 5.991 0 00-2.276 1.86c-.592.815-1.037 1.805-1.333 2.97-.296 1.148-.444 2.452-.444 3.914 0 1.518.158 2.869.472 4.053.333 1.184.805 2.184 1.416 2.998a6.218 6.218 0 002.22 1.832c.87.407 1.851.61 2.943.61s1.97-.13 2.637-.388c.684-.278 1.258-.574 1.72-.888.463-.334.861-.63 1.194-.889a1.84 1.84 0 011.166-.416c.555 0 .972.213 1.249.638l1.971 2.499a12.78 12.78 0 01-2.47 2.248 14.183 14.183 0 01-2.776 1.443c-.944.352-1.925.602-2.943.75-.999.148-1.998.222-2.997.222-1.758 0-3.414-.324-4.969-.972a11.9 11.9 0 01-4.08-2.886c-1.166-1.259-2.091-2.795-2.776-4.608-.666-1.832-1-3.914-1-6.246 0-2.09.297-4.025.889-5.801.61-1.795 1.499-3.34 2.665-4.636 1.165-1.314 2.609-2.34 4.33-3.08 1.72-.741 3.7-1.111 5.94-1.111 2.128 0 3.988.342 5.579 1.027a13.626 13.626 0 014.331 2.942l-1.805 2.498zm21.425 10.299c-1.98.092-3.646.268-4.996.527-1.351.24-2.434.555-3.248.944-.814.388-1.397.842-1.749 1.36a2.959 2.959 0 00-.527 1.693c0 1.203.351 2.063 1.055 2.582.721.518 1.656.777 2.803.777 1.407 0 2.619-.25 3.636-.75 1.037-.518 2.045-1.295 3.026-2.331V49.36zM108.68 37.007c3.275-2.997 7.217-4.496 11.825-4.496 1.665 0 3.155.277 4.469.832 1.314.537 2.424 1.296 3.331 2.276.907.963 1.591 2.12 2.054 3.47.481 1.351.722 2.831.722 4.442v17.987h-3.109c-.648 0-1.148-.093-1.499-.278-.352-.204-.629-.601-.833-1.194l-.611-2.054a26.839 26.839 0 01-2.109 1.721 12.96 12.96 0 01-2.138 1.222c-.74.333-1.535.582-2.387.75-.832.184-1.758.277-2.775.277-1.203 0-2.314-.158-3.331-.472-1.018-.333-1.897-.824-2.637-1.471a6.532 6.532 0 01-1.721-2.415c-.408-.963-.611-2.082-.611-3.359 0-.722.12-1.434.361-2.137a6.357 6.357 0 011.166-2.054c.555-.648 1.267-1.259 2.137-1.833.87-.573 1.934-1.073 3.192-1.498 1.277-.426 2.757-.768 4.441-1.027 1.684-.278 3.609-.445 5.774-.5V43.53c0-1.907-.407-3.313-1.221-4.22-.815-.925-1.99-1.388-3.526-1.388-1.11 0-2.035.13-2.775.389a10.9 10.9 0 00-1.916.888c-.555.315-1.064.602-1.526.86a2.92 2.92 0 01-1.499.39c-.481 0-.889-.12-1.222-.361a3.323 3.323 0 01-.805-.889l-1.221-2.193zm35.797-16.737v41.248h-6.856V20.269h6.856zm13.937 12.768v28.48h-6.884v-28.48h6.884zm19.592-.444c2.11 0 4.025.342 5.746 1.027 1.74.685 3.22 1.656 4.441 2.914 1.24 1.259 2.193 2.795 2.859 4.608.667 1.814 1 3.84 1 6.08 0 2.257-.333 4.293-1 6.106-.666 1.813-1.619 3.359-2.859 4.636-1.221 1.276-2.701 2.257-4.441 2.942-1.721.685-3.636 1.027-5.746 1.027-2.128 0-4.062-.342-5.801-1.027-1.74-.685-3.229-1.666-4.469-2.942-1.222-1.277-2.175-2.823-2.859-4.636-.666-1.813-1-3.85-1-6.107 0-2.239.334-4.265 1-6.079.684-1.813 1.637-3.35 2.859-4.608 1.24-1.258 2.729-2.23 4.469-2.914 1.739-.685 3.673-1.027 5.801-1.027zm0 24.066c2.369 0 4.118-.796 5.246-2.387 1.148-1.592 1.721-3.923 1.721-6.995s-.573-5.413-1.721-7.023c-1.128-1.61-2.877-2.415-5.246-2.415-2.406 0-4.191.814-5.357 2.443-1.147 1.61-1.721 3.941-1.721 6.995 0 3.053.574 5.385 1.721 6.995 1.166 1.591 2.951 2.387 5.357 2.387z" fill="#4CAF50"/><path d="M154.893 29.06l3.415 2.04c.625.375 1.39-.178 1.226-.877l-.906-3.838 3.02-2.586c.551-.471.255-1.366-.469-1.423l-3.974-.333-1.555-3.627c-.28-.658-1.234-.658-1.514 0l-1.555 3.619-3.974.333c-.724.057-1.02.952-.469 1.423l3.02 2.586-.906 3.838c-.164.699.601 1.252 1.226.878l3.415-2.033z" fill="#F0C62F"/></g><defs><clipPath id="prefix__prefix__clip0_394_6537"><path fill="#fff" d="M0 0h212v82H0z"/></clipPath></defs></svg>
